elusive/website.svg

<?xml version="1.0" encoding="UTF-8" standalone="no"?>
<!-- Generator: IcoMoon.io -->

<svg
   xmlns:dc="http://purl.org/dc/elements/1.1/"
   xmlns:cc="http://creativecommons.org/ns#"
   xmlns:rdf="http://www.w3.org/1999/02/22-rdf-syntax-ns#"
   xmlns:svg="http://www.w3.org/2000/svg"
   xmlns="http://www.w3.org/2000/svg"
   xmlns:sodipodi="http://sodipodi.sourceforge.net/DTD/sodipodi-0.dtd"
   xmlns:inkscape="http://www.inkscape.org/namespaces/inkscape"
   id="svg2"
   version="1.1"
   data-tags="remove-circle, cancel, close, remove, delete"
   height="1200"
   width="1200"
   data-du=""
   viewBox="0 0 1200 1200"
   inkscape:version="0.48.4 r9939"
   sodipodi:docname="website.svg">
  <defs
     id="defs32">
    <pattern
       id="pattern13199"
       width="811.3138"
       patternUnits="userSpaceOnUse"
       patternTransform="translate(-1692.9959,113.8855)"
       height="483.7205">
      <path
         id="path13201"
         filter="url(#filter3767)"
         d="M241.8603,83.1823H569.4535A158.678,158.678 0 0 1 728.1315,241.8603V241.8603A158.678,158.678 0 0 1 569.4535,400.5382H241.8603A158.678,158.678 0 0 1 83.1823,241.8603V241.8603A158.678,158.678 0 0 1 241.8603,83.1823" />
    </pattern>
    <mask
       id="mask13195"
       maskUnits="userSpaceOnUse">
      <path
         id="path13197"
         d="m -957.1864,582.2458 40.9492,-299.4407 -144.6017,-8.9576 -10.2373,67.822 -12.7966,11.5169 -8.9576,216.2627 -65.2627,-21.7542 14.0763,-270.0085 -74.2204,-6.3983 -11.5169,28.1525 -14.0763,225.2203 -42.2288,-8.9576 2.5593,-250.8136 -6.3983,0 -7.678,-70.3814 -33.2712,1.2797 -1.2796,29.4322 -7.678,17.9153 -2.5593,189.3898 -26.8729,33.2712 2.5593,88.2966 40.9492,19.1949 34.5508,-46.0678 284.0848,76.7797 49.9068,-21.7542"
         inkscape:connector-curvature="0"
         style="fill:#ffffff;stroke:#000000" />
    </mask>
    <filter
       id="filter13191"
       y="-0.26210001"
       x="-0.12899999"
       width="1.2579"
       height="1.5242"
       color-interpolation-filters="sRGB">
      <feGaussianBlur
         id="feGaussianBlur13193"
         stdDeviation="34.659" />
    </filter>
    <inkscape:path-effect
       id="path-effect13189" />
    <inkscape:path-effect
       id="path-effect21802" />
    <pattern
       id="pattern16"
       width="811.3138"
       patternUnits="userSpaceOnUse"
       patternTransform="translate(-1692.9959,113.8855)"
       height="483.7205">
      <path
         id="path18"
         filter="url(#filter3767)"
         d="M241.8603,83.1823H569.4535A158.678,158.678 0 0 1 728.1315,241.8603V241.8603A158.678,158.678 0 0 1 569.4535,400.5382H241.8603A158.678,158.678 0 0 1 83.1823,241.8603V241.8603A158.678,158.678 0 0 1 241.8603,83.1823" />
    </pattern>
    <mask
       id="mask12"
       maskUnits="userSpaceOnUse">
      <path
         id="path14"
         d="m -957.1864,582.2458 40.9492,-299.4407 -144.6017,-8.9576 -10.2373,67.822 -12.7966,11.5169 -8.9576,216.2627 -65.2627,-21.7542 14.0763,-270.0085 -74.2204,-6.3983 -11.5169,28.1525 -14.0763,225.2203 -42.2288,-8.9576 2.5593,-250.8136 -6.3983,0 -7.678,-70.3814 -33.2712,1.2797 -1.2796,29.4322 -7.678,17.9153 -2.5593,189.3898 -26.8729,33.2712 2.5593,88.2966 40.9492,19.1949 34.5508,-46.0678 284.0848,76.7797 49.9068,-21.7542"
         inkscape:connector-curvature="0"
         style="fill:#ffffff;stroke:#000000" />
    </mask>
    <filter
       id="filter8"
       y="-0.26210001"
       x="-0.12899999"
       width="1.2579"
       height="1.5242"
       color-interpolation-filters="sRGB">
      <feGaussianBlur
         id="feGaussianBlur10"
         stdDeviation="34.659" />
    </filter>
    <inkscape:path-effect
       id="path-effect6" />
  </defs>
  <sodipodi:namedview
     pagecolor="#ffffff"
     bordercolor="#666666"
     borderopacity="1"
     objecttolerance="10"
     gridtolerance="10"
     guidetolerance="10"
     inkscape:pageopacity="0"
     inkscape:pageshadow="2"
     inkscape:window-width="1535"
     inkscape:window-height="876"
     id="namedview30"
     showgrid="false"
     inkscape:zoom="0.52678571"
     inkscape:cx="593.76445"
     inkscape:cy="553.24435"
     inkscape:window-x="65"
     inkscape:window-y="24"
     inkscape:window-maximized="1"
     inkscape:current-layer="svg2" />
  <metadata
     id="metadata62">
    <rdf:RDF>
      <cc:Work
         rdf:about="">
        <dc:format>image/svg+xml</dc:format>
        <dc:type
           rdf:resource="http://purl.org/dc/dcmitype/StillImage" />
        <dc:title />
      </cc:Work>
    </rdf:RDF>
  </metadata>
  <g
     id="g23079"
     transform="matrix(0.51076562,0,0,-0.51076562,421.32091,1088.631)" />
  <g
     id="g25109"
     transform="matrix(1.5625,0,0,1.5625,-289.69333,636.22571)" />
  <path
     style="fill:currentColor"
     inkscape:connector-curvature="0"
     d="m 698.59719,922.24434 -199.59919,0 0,-199.5992 199.59919,0 z m 252.50501,0 -199.5992,0 0,-199.5992 199.5992,0 z m -505.01001,0 -199.59921,0 0,-199.5992 199.59921,0 z m 505.01001,-631.26253 0,367.93587 -704.60922,0 0,-367.93587 z m 101.002,-105.81163 -904.20841,0 0,829.65942 904.20841,0 z M -4.5999998e-7,1161.5225 l 0,-1123.045336 L 1200,38.477164 1200,1161.5228 z"
     id="path26029" />
</svg>

<?xml version="1.0" encoding="utf-8"?>
<!-- Generator: Adobe Illustrator 13.0.0, SVG Export Plug-In . SVG Version: 6.00 Build 14948)  -->
<!DOCTYPE svg PUBLIC "-//W3C//DTD SVG 1.1//EN" "http://www.w3.org/Graphics/SVG/1.1/DTD/svg11.dtd">
<svg version="1.1"
	 id="svg2" inkscape:version="0.48.4 r9939" sodipodi:docname="website.svg" xmlns:dc="http://purl.org/dc/elements/1.1/" xmlns:cc="http://creativecommons.org/ns#" xmlns:rdf="http://www.w3.org/1999/02/22-rdf-syntax-ns#" xmlns:svg="http://www.w3.org/2000/svg" xmlns:sodipodi="http://sodipodi.sourceforge.net/DTD/sodipodi-0.dtd" xmlns:inkscape="http://www.inkscape.org/namespaces/inkscape"
	 xmlns="http://www.w3.org/2000/svg" xmlns:xlink="http://www.w3.org/1999/xlink" x="0px" y="0px" width="1200px" height="1200px"
	 viewBox="0 0 1200 1200" enable-background="new 0 0 1200 1200" xml:space="preserve">
<path id="path26029" inkscape:connector-curvature="0" d="M698.598,922.244h-199.6V722.646h199.6V922.244z M951.103,922.244h-199.6
	V722.646h199.6V922.244z M446.092,922.244H246.493V722.646h199.599V922.244z M951.103,290.982v367.936H246.493V290.982H951.103z
	 M1052.104,185.17H147.896v829.66h904.209V185.17z M0,1161.522V38.477h1200v1123.045H0z"/>
</svg>
